communes/3619.svg

<?xml version="1.0" encoding="UTF-8"?>
<!DOCTYPE svg  PUBLIC '-//W3C//DTD SVG 1.1//EN'  'http://www.w3.org/Graphics/SVG/1.1/DTD/svg11.dtd'>
<svg width="438" height="480" viewBox="21 15 438 480" xmlns="http://www.w3.org/2000/svg">
<metadata>
<rdf:RDF xmlns:dc="http://purl.org/dc/elements/1.1/" xmlns:rdf="http://www.w3.org/1999/02/22-rdf-syntax-ns#">
<rdf:Description dc:date="2006-10-28" dc:format="image/svg+xml" dc:language="de" dc:title="Wappen Ilanz (CH-GR)">
<dc:creator rdf:resource="http://de.wikipedia.org/wiki/Benutzer:Bernina"/>
</rdf:Description>
</rdf:RDF>
</metadata>
<title>Wappen Ilanz (CH-GR)</title>
<defs>
<clipPath id="a">
<path d="m360 4140a3240 3240 0 0 0 6480 0v-3870h-6480v3870z"/>
</clipPath>
<style type="text/css"><![CDATA[
  .Rand1 { stroke: #202020; stroke-width:15; }
  .Rand2 { stroke: #202020; stroke-width:30; }
  .Rand6 { stroke: #202020; stroke-width:90; }
  .Schwarz { fill: #000000; }
  .Blau { fill: #0000ff; }
  .Rot { fill: #ff0000; }
  .Gold { fill: #ffef00; }
  .Silber { fill: #ffffff; }
  ]]></style>
</defs>
<g transform="scale(.066667)" fill="none" fill-rule="evenodd" stroke-miterlimit="10" stroke-width="10">
<g clip-path="url(#a)">
<path class="Rot" d="m-225-225v7650h7650v-7650h-7650z"/>
<path class="Schwarz Rand2" d="m2520 4230a6525 6525 0 0 0 2160 0v-630h-2160v630z"/>
<path class="Silber Rand2" d="m900-315h-1215v1260c210 15 420 30 727 113 308 82 713 232 1110 457 398 225 788 525 983 1170s195 1635 345 2340 450 1125 720 1455 510 570 705 720 345 210 495 270h2700v-765c-300 0-600 0-885-30s-555-90-810-217c-255-128-495-323-720-540-225-218-435-458-540-998s-105-1380-240-2070-405-1230-765-1635-810-675-1260-907c-450-233-900-428-1350-623z"/>
<path class="Blau Rand1" d="m90-315h-405v945l675 90c270 60 540 120 900 270s810 390 1140 750 540 840 645 1410 105 1230 180 1740 225 870 480 1230 615 720 915 945 540 315 780 405h2070v-495c-360 0-720 0-1050-37-330-38-630-113-878-226-247-112-442-262-637-442s-390-390-533-645c-142-255-232-555-292-1020s-90-1095-165-1575-195-810-420-1155-555-705-923-990c-367-285-772-495-1192-683-420-187-855-352-1290-517z"/>
<path class="Schwarz" d="m2610 3600h1980v-450h-1980v450z"/>
<path class="Gold Rand2" d="m2160 2700a2001.8 2001.8 0 0 1 360 990v540a6525 6525 0 0 1 2160 0v-540a2001.8 2001.8 0 0 1 360-990 222.99 222.99 0 0 0-315 315l-64.89 142.75a180 180 0 0 0-340.11 82.25 180 180 0 0 0 223.31 174.71l-43.31 95.29a142.3 142.3 0 0 1-270 0v-540a90 90 0 0 0 90-90 90 90 0 0 0-180 0 90 90 0 0 0 65.28 86.54l-155.28 543.46a138.25 138.25 0 0 1-270-45l-20.33-172.77a180 180 0 0 0 290.33-142.23 180 180 0 0 0-320.32-112.74l-11.14-94.67a270 270 0 0 0 151.46-242.59 270 270 0 0 0-217.84-264.91l-7.16-50.09a45 45 0 0 0-90 0l-7.16 50.09a270 270 0 0 0-217.84 264.91 270 270 0 0 0 151.46 242.59l-11.14 94.67a180 180 0 0 0-320.32 112.74 180 180 0 0 0 290.33 142.23l-20.33 172.77a138.25 138.25 0 0 1-270 45l-155.28-543.46a90 90 0 0 0 65.28-86.54 90 90 0 0 0-180 0 90 90 0 0 0 90 90v540a142.3 142.3 0 0 1-270 0l-43.31-95.29a180 180 0 0 0 223.31-174.71 180 180 0 0 0-340.11-82.25l-64.89-142.75a222.99 222.99 0 0 0-315-315z"/>
<path class="Rand2" d="m2520 3960a6525 6525 0 0 1 2160 0"/>
</g>
<path class="Rand6" d="m360 4140a3240 3240 0 0 0 6480 0v-3870h-6480v3870z"/>
</g>
</svg>

<?xml version="1.0" encoding="iso-8859-1"?>
<!DOCTYPE svg PUBLIC "-//W3C//DTD SVG 1.1//EN" "http://www.w3.org/Graphics/SVG/1.1/DTD/svg11.dtd">
<!-- Auto-generated by fig2svg tool
     Date: Sat Oct 28 18:04:25 2006 -->
<svg xmlns="http://www.w3.org/2000/svg"
     width="438" height="480" viewBox="21 15 438 480">
<metadata>
<rdf:RDF xmlns:rdf="http://www.w3.org/1999/02/22-rdf-syntax-ns#"
         xmlns:dc="http://purl.org/dc/elements/1.1/">
<rdf:Description
 dc:title="Wappen Ilanz (CH-GR)"
 dc:date="2006-10-28"
 dc:format="image/svg+xml"
 dc:language="de">
<dc:creator rdf:resource="http://de.wikipedia.org/wiki/Benutzer:Bernina" />
</rdf:Description>
</rdf:RDF>
</metadata>
<title>
Wappen Ilanz (CH-GR)
</title>
<defs>
<clipPath id="clippath">
<path d="M360,4140 A3240,3240 0.0 0 0 6840,4140 L6840,270 L360,270 L360,4140 Z" />
</clipPath>
<style type="text/css">
  <![CDATA[
  .Rand1 { stroke: #202020; stroke-width:15; }
  .Rand2 { stroke: #202020; stroke-width:30; }
  .Rand6 { stroke: #202020; stroke-width:90; }
  .Schwarz { fill: #000000; }
  .Blau { fill: #0000ff; }
  .Rot { fill: #ff0000; }
  .Gold { fill: #ffef00; }
  .Silber { fill: #ffffff; }
  ]]>
</style>
</defs>
<g stroke="none" stroke-miterlimit="10" stroke-width="10"
   stroke-linecap="butt" stroke-linejoin="miter"
   fill="none" fill-rule="evenodd" transform="scale(0.066667)">
<g clip-path="url(#clippath)">
<path id="feld-1" class="Rot"
      d="M-225,-225 L-225,7425 L7425,7425 L7425,-225 L-225,-225 Z" />
<path id="krone-hinten-1" class="Schwarz Rand2"
      d="M2520,4230 A6525,6525 0.0 0 0 4680,4230 L4680,3600 L2520,3600
         L2520,4230 Z" />
<path id="fluss1-1" class="Silber Rand2"
      d="M900,-315 L-315,-315 L-315,945 C-105,960 105,975 412,1058
         C720,1140 1125,1290 1522,1515 C1920,1740 2310,2040 2505,2685
         C2700,3330 2700,4320 2850,5025 C3000,5730 3300,6150 3570,6480
         C3840,6810 4080,7050 4275,7200 C4470,7350 4620,7410 4770,7470
         L7470,7470 L7470,6705 C7170,6705 6870,6705 6585,6675
         C6300,6645 6030,6585 5775,6458 C5520,6330 5280,6135 5055,5918
         C4830,5700 4620,5460 4515,4920 C4410,4380 4410,3540 4275,2850
         C4140,2160 3870,1620 3510,1215 C3150,810 2700,540 2250,308
         C1800,75 1350,-120 900,-315 Z" />
<path id="fluss2-1" class="Blau Rand1"
      d="M90,-315 L-315,-315 L-315,630 L360,720 C630,780 900,840 1260,990
         C1620,1140 2070,1380 2400,1740 C2730,2100 2940,2580 3045,3150
         C3150,3720 3150,4380 3225,4890 C3300,5400 3450,5760 3705,6120
         C3960,6480 4320,6840 4620,7065 C4920,7290 5160,7380 5400,7470
         L7470,7470 L7470,6975 C7110,6975 6750,6975 6420,6938
         C6090,6900 5790,6825 5542,6712 C5295,6600 5100,6450 4905,6270
         C4710,6090 4515,5880 4372,5625 C4230,5370 4140,5070 4080,4605
         C4020,4140 3990,3510 3915,3030 C3840,2550 3720,2220 3495,1875
         C3270,1530 2940,1170 2572,885 C2205,600 1800,390 1380,202
         C960,15 525,-150 90,-315 Z" />
<path id="krone-schwarz-1" class="Schwarz"
      d="M2610,3600 L4590,3600 L4590,3150 L2610,3150 L2610,3600 Z" />
<path id="krone-1" class="Gold Rand2"
      d="M2160,2700 A2001.81,2001.81 0.0 0 1 2520,3690 L2520,4230
         A6525,6525 0.0 0 1 4680,4230 L4680,3690
         A2001.81,2001.81 0.0 0 1 5040,2700 A222.99,222.99 0.0 0 0 4725,3015
         L4660.11,3157.75 A180,180 0.0 0 0 4320,3240
         A180,180 0.0 0 0 4543.31,3414.71 L4500,3510
         A142.30,142.30 0.0 0 1 4230,3510 L4230,2970 A90,90 0.0 0 0 4320,2880
         A90,90 0.0 0 0 4140,2880 A90,90 0.0 0 0 4205.28,2966.54 L4050,3510
         A138.25,138.25 0.0 0 1 3780,3465 L3759.67,3292.23
         A180,180 0.0 0 0 4050,3150 A180,180 0.0 0 0 3729.68,3037.26
         L3718.54,2942.59 A270,270 0.0 0 0 3870,2700
         A270,270 0.0 0 0 3652.16,2435.09 L3645,2385 A45,45 0.0 0 0 3555,2385
         L3547.84,2435.09 A270,270 0.0 0 0 3330,2700
         A270,270 0.0 0 0 3481.46,2942.59 L3470.32,3037.26
         A180,180 0.0 0 0 3150,3150 A180,180 0.0 0 0 3440.33,3292.23
         L3420,3465 A138.25,138.25 0.0 0 1 3150,3510 L2994.72,2966.54
         A90,90 0.0 0 0 3060,2880 A90,90 0.0 0 0 2880,2880
         A90,90 0.0 0 0 2970,2970 L2970,3510 A142.30,142.30 0.0 0 1 2700,3510
         L2656.69,3414.71 A180,180 0.0 0 0 2880,3240
         A180,180 0.0 0 0 2539.89,3157.75 L2475,3015 A222.99,222.99 0.0 0 0 2160,2700 Z" />
<path id="krone-linie-1" class="Rand2"
      d="M2520,3960 A6525,6525 0.0 0 1 4680,3960" />
</g>
<path id="clip-boundary" class="Rand6"
      d="M360,4140 A3240,3240 0.0 0 0 6840,4140 L6840,270 L360,270 L360,4140 Z" />
</g>
</svg>
